Simply-Blue-Circles/scalable/apps/scribus.svg

<svg xmlns="http://www.w3.org/2000/svg" width="48" height="48" viewBox="0 0 12.7 12.7"><g fill="#2c89a0"><path d="M6.344.073a6.29 6.29 0 0 0-6.29 6.29 6.29 6.29 0 0 0 6.29 6.288 6.29 6.29 0 0 0 6.29-6.289 6.29 6.29 0 0 0-6.29-6.29zm-.018.936a5.407 5.407 0 0 1 5.407 5.407 5.407 5.407 0 0 1-5.407 5.407A5.407 5.407 0 0 1 .92 6.416 5.407 5.407 0 0 1 6.326 1.01z"/><path d="M7.65 2.383a1.083 1.083 0 0 0-.682.197C5.958 4.29 5.157 5.814 4.64 7.524c-.274.915-.521 1.862-.761 2.781.39.033.316 0 .618.001.222-.497.666-.97.974-1.316.766-.796 1.495-1.153 2.425-1.465.014-.938-.054-1.868.326-2.69.155-.342.4-.708.601-1.019 0-.695-.521-1.39-1.173-1.433z"/></g></svg>

<?xml version="1.0" encoding="UTF-8" standalone="no"?>
<svg
   xmlns:dc="http://purl.org/dc/elements/1.1/"
   xmlns:cc="http://creativecommons.org/ns#"
   xmlns:rdf="http://www.w3.org/1999/02/22-rdf-syntax-ns#"
   xmlns:svg="http://www.w3.org/2000/svg"
   xmlns="http://www.w3.org/2000/svg"
   xmlns:sodipodi="http://sodipodi.sourceforge.net/DTD/sodipodi-0.dtd"
   xmlns:inkscape="http://www.inkscape.org/namespaces/inkscape"
   width="48"
   height="48"
   viewBox="0 0 12.7 12.7"
   version="1.1"
   id="svg8"
   sodipodi:docname="scribus.svg"
   inkscape:version="0.92.4 (5da689c313, 2019-01-14)">
  <metadata
     id="metadata14">
    <rdf:RDF>
      <cc:Work
         rdf:about="">
        <dc:format>image/svg+xml</dc:format>
        <dc:type
           rdf:resource="http://purl.org/dc/dcmitype/StillImage" />
        <dc:title></dc:title>
      </cc:Work>
    </rdf:RDF>
  </metadata>
  <defs
     id="defs12" />
  <sodipodi:namedview
     pagecolor="#ffffff"
     bordercolor="#666666"
     borderopacity="1"
     objecttolerance="10"
     gridtolerance="10"
     guidetolerance="10"
     inkscape:pageopacity="0"
     inkscape:pageshadow="2"
     inkscape:window-width="1087"
     inkscape:window-height="480"
     id="namedview10"
     showgrid="false"
     inkscape:zoom="4.9166667"
     inkscape:cx="2.1355932"
     inkscape:cy="24"
     inkscape:window-x="0"
     inkscape:window-y="25"
     inkscape:window-maximized="0"
     inkscape:current-layer="svg8" />
  <g
     id="g6"
     style="fill:#2c89a0">
    <path
       d="m 6.344,0.073 a 6.29,6.29 0 0 0 -6.29,6.29 6.29,6.29 0 0 0 6.29,6.288 6.29,6.29 0 0 0 6.29,-6.289 6.29,6.29 0 0 0 -6.29,-6.29 z M 6.326,1.009 A 5.407,5.407 0 0 1 11.733,6.416 5.407,5.407 0 0 1 6.326,11.823 5.407,5.407 0 0 1 0.92,6.416 5.407,5.407 0 0 1 6.326,1.01 Z"
       id="path2"
       inkscape:connector-curvature="0" />
    <path
       d="M 7.65,2.383 A 1.083,1.083 0 0 0 6.968,2.58 C 5.958,4.29 5.157,5.814 4.64,7.524 4.366,8.439 4.119,9.386 3.879,10.305 c 0.39,0.033 0.316,0 0.618,10e-4 C 4.719,9.809 5.163,9.336 5.471,8.99 6.237,8.194 6.966,7.837 7.896,7.525 7.91,6.587 7.842,5.657 8.222,4.835 8.377,4.493 8.622,4.127 8.823,3.816 8.823,3.121 8.302,2.426 7.65,2.383 Z"
       id="path4"
       inkscape:connector-curvature="0" />
  </g>
</svg>
